svgs/sharp-regular/arrow-down-wide-short.svg

<svg xmlns="http://www.w3.org/2000/svg" viewBox="0 0 576 512"><!--! Font Awesome Pro 6.6.0 by @fontawesome - https://fontawesome.com License - https://fontawesome.com/license (Commercial License) Copyright 2024 Fonticons, Inc. --><path d="M111 461.8l17 17 17-17 96-96 17-17L224 314.9l-17 17-55 55L152 56l0-24-48 0 0 24 0 330.9-55-55-17-17L-1.9 348.8l17 17 96 96zM312 480l48 0 24 0 0-48-24 0-48 0-24 0 0 48 24 0zm0-128l112 0 24 0 0-48-24 0-112 0-24 0 0 48 24 0zm0-128l176 0 24 0 0-48-24 0-176 0-24 0 0 48 24 0zm0-128l240 0 24 0 0-48-24 0L312 48l-24 0 0 48 24 0z"/></svg>

<svg xmlns="http://www.w3.org/2000/svg" viewBox="0 0 576 512"><!--! Font Awesome Pro 6.4.2 by @fontawesome - https://fontawesome.com License - https://fontawesome.com/license (Commercial License) Copyright 2023 Fonticons, Inc. --><path d="M111 461.8l17 17 17-17 96-96 17-17L224 314.9l-17 17-55 55V56 32H104V56 386.9l-55-55-17-17L-1.9 348.8l17 17 96 96zM312 480h48 24V432H360 312 288v48h24zm0-128H424h24V304H424 312 288v48h24zm0-128H488h24V176H488 312 288v48h24zm0-128H552h24V48H552 312 288V96h24z"/></svg>
